icons/svg/seamark/harbour_default_small.svg

<?xml version="1.0" encoding="UTF-8" standalone="no"?>
<svg
   xmlns:dc="http://purl.org/dc/elements/1.1/"
   xmlns:cc="http://creativecommons.org/ns#"
   xmlns:rdf="http://www.w3.org/1999/02/22-rdf-syntax-ns#"
   xmlns:svg="http://www.w3.org/2000/svg"
   xmlns="http://www.w3.org/2000/svg"
   xmlns:sodipodi="http://sodipodi.sourceforge.net/DTD/sodipodi-0.dtd"
   xmlns:inkscape="http://www.inkscape.org/namespaces/inkscape"
   width="580"
   height="580"
   id="svg2"
   version="1.1"
   inkscape:version="0.48.4 r9939"
   sodipodi:docname="harbour_default_small.svg">
  <defs
     id="defs13">
    <inkscape:path-effect
       effect="gears"
       id="path-effect3774"
       is_visible="true"
       teeth="6"
       phi="-1.2" />
    <inkscape:path-effect
       effect="bend_path"
       id="path-effect3772"
       is_visible="false"
       bendpath="m 95.790098,316.51174 c 144.429032,-206.42506 223.313032,-11.7428 339.548092,0"
       prop_scale="1.19"
       scale_y_rel="false"
       vertical="false"
       bendpath-nodetypes="cc" />
  </defs>
  <sodipodi:namedview
     pagecolor="#ffffff"
     bordercolor="#666666"
     borderopacity="1"
     objecttolerance="10"
     gridtolerance="10"
     guidetolerance="10"
     inkscape:pageopacity="0"
     inkscape:pageshadow="2"
     inkscape:window-width="1920"
     inkscape:window-height="1004"
     id="namedview11"
     showgrid="false"
     inkscape:zoom="0.5754386"
     inkscape:cx="236.19577"
     inkscape:cy="366.28157"
     inkscape:window-x="1680"
     inkscape:window-y="0"
     inkscape:window-maximized="1"
     inkscape:current-layer="svg2" />
  <metadata
     id="metadata2975">image/svg+xmlen<rdf:RDF>
  <cc:Work
     rdf:about="">
    <dc:format>image/svg+xml</dc:format>
    <dc:type
       rdf:resource="http://purl.org/dc/dcmitype/StillImage" />
    <dc:title></dc:title>
  </cc:Work>
</rdf:RDF>
</metadata>
  <path
     style="font-size:medium;font-style:normal;font-variant:normal;font-weight:normal;font-stretch:normal;text-indent:0;text-align:start;text-decoration:none;line-height:normal;letter-spacing:normal;word-spacing:normal;text-transform:none;direction:ltr;block-progression:tb;writing-mode:lr-tb;text-anchor:start;baseline-shift:baseline;color:#000000;fill:#930093;fill-opacity:1;fill-rule:nonzero;stroke:none;stroke-width:1;marker:none;visibility:visible;display:inline;overflow:visible;enable-background:accumulate;font-family:Sans;-inkscape-font-specification:Sans"
     d="m 289.98977,135.58349 c -26.10038,0 -47.50803,21.40764 -47.50803,47.50806 0,17.46812 9.59556,32.82357 23.76421,41.07872 l 0,30.19357 -35.64633,0 0,23.76423 35.64633,0 0,106.99998 c -28.80239,-2.03483 -60.58927,-39.53992 -75.6467,-74.56835 11.93862,0.64959 23.66247,-0.2645 23.66247,-0.2645 0,0 -22.98278,-34.66398 -55.28027,-43.56094 -20.1696,17.42568 -23.39799,66.81651 -23.39799,66.81651 0,0 7.593,-3.75906 16.78552,-10.76308 15.5198,44.42695 55.96159,82.91635 104.86365,93.65297 21.0011,4.60885 32.75714,27.97585 32.75714,27.97585 0,0 11.77651,-23.367 32.77756,-27.97585 48.65544,-10.68247 88.9283,-48.8389 104.61951,-92.98154 9.41218,7.17261 17.0297,10.09166 17.0297,10.09166 0,-14.25414 -1.61382,-43.16606 -22.25867,-67.3862 -32.2974,8.89696 -56.43994,44.13063 -56.43994,44.13063 0,0 11.7278,0.91286 23.66244,0.26451 -15.05961,35.02092 -46.82741,72.53374 -75.62639,74.56834 l 0,-106.99998 35.62601,0 0,-23.76422 -35.62601,0 0,-30.19358 c 14.16029,-8.2573 23.76422,-23.61687 23.76422,-41.07873 0,-26.10042 -21.42797,-47.50806 -47.52843,-47.50806 z m 0,23.74385 c 13.26135,0 23.76421,10.50295 23.76421,23.76421 0,13.26127 -10.50286,23.76421 -23.76421,23.76421 -13.2612,0 -23.74382,-10.50294 -23.74382,-23.76421 0,-13.26126 10.48262,-23.76421 23.74382,-23.76421 z"
     id="circle3"
     inkscape:connector-curvature="0" />
  <path
     sodipodi:type="arc"
     style="color:#000000;fill:none;stroke:#930093;stroke-width:26.05776978;stroke-linecap:round;stroke-linejoin:miter;stroke-miterlimit:4;stroke-opacity:1;stroke-dasharray:none;stroke-dashoffset:0;marker:none;visibility:visible;display:inline;overflow:visible;enable-background:accumulate"
     id="path2987"
     sodipodi:cx="252.52119"
     sodipodi:cy="231.63135"
     sodipodi:rx="284.15234"
     sodipodi:ry="284.15234"
     d="m 536.67354,231.63135 a 284.15234,284.15234 0 1 1 -568.304689,0 284.15234,284.15234 0 1 1 568.304689,0 z"
     transform="matrix(0.67661144,0,0,0.67661144,119.14127,133.27558)" />
</svg>

<svg width="580" height="580" viewBox="0 0 580 580" fill="none" xmlns="http://www.w3.org/2000/svg">
<path d="M289.99 135.584C263.889 135.584 242.482 156.992 242.482 183.092C242.482 200.56 252.077 215.916 266.246 224.171V254.364H230.6V278.129H266.246V385.129C237.444 383.094 205.657 345.589 190.599 310.56C202.538 311.21 214.262 310.296 214.262 310.296C214.262 310.296 191.279 275.632 158.981 266.735C138.812 284.16 135.583 333.551 135.583 333.551C135.583 333.551 143.176 329.792 152.369 322.788C167.889 367.215 208.331 405.705 257.233 416.441C278.234 421.05 289.99 444.417 289.99 444.417C289.99 444.417 301.766 421.05 322.767 416.441C371.423 405.759 411.696 367.602 427.387 323.46C436.799 330.632 444.417 333.551 444.417 333.551C444.417 319.297 442.803 290.385 422.158 266.165C389.86 275.062 365.718 310.296 365.718 310.296C365.718 310.296 377.446 311.209 389.38 310.56C374.321 345.581 342.553 383.094 313.754 385.129V278.129H349.38V254.364H313.754V224.171C327.914 215.913 337.518 200.554 337.518 183.092C337.518 156.992 316.09 135.584 289.99 135.584ZM289.99 159.328C303.251 159.328 313.754 169.831 313.754 183.092C313.754 196.353 303.251 206.856 289.99 206.856C276.729 206.856 266.246 196.353 266.246 183.092C266.246 169.831 276.729 159.328 289.99 159.328Z" fill="#930093"/>
<path d="M482.261 290C482.261 340.991 462.005 389.893 425.949 425.949C389.893 462.005 340.991 482.261 290 482.261C239.009 482.261 190.107 462.005 154.051 425.949C117.995 389.893 97.7393 340.991 97.7393 290C97.7393 239.009 117.995 190.107 154.051 154.051C190.107 117.995 239.009 97.7393 290 97.7393C340.991 97.7393 389.893 117.995 425.949 154.051C462.005 190.107 482.261 239.009 482.261 290V290Z" stroke="#930093" stroke-width="17.631" stroke-linecap="round"/>
</svg>
